tools/download-figma-icons/icons/outlined-large/search.svg

<svg width="65" height="65" viewBox="0 0 65 65" fill="none" xmlns="http://www.w3.org/2000/svg">
<path fill-rule="evenodd" clip-rule="evenodd" d="M59.3193 61.5069C59.9184 62.106 60.8953 62.107 61.4944 61.5059C62.0935 60.9068 62.0935 59.931 61.4944 59.3319L47.5132 45.3527L45.3402 47.5257L59.3193 61.5069ZM39.9128 46.491C40.2235 46.8017 40.6124 46.9835 41.0084 47.0068C41.1942 47.015 41.5628 46.9936 41.8401 46.7185L46.7069 41.8526C46.9811 41.5764 47.0044 41.2139 46.9943 41.021C46.9709 40.625 46.7892 40.2361 46.4785 39.9254L45.3483 38.7952C43.5886 41.3723 41.3587 43.6011 38.7806 45.3588L39.9128 46.491ZM24.8309 3.04661C12.8186 3.04661 3.04624 12.8189 3.04624 24.8302C3.04624 36.8415 12.8186 46.6139 24.8309 46.6139C36.8422 46.6139 46.6145 36.8415 46.6145 24.8302C46.6145 12.8189 36.8422 3.04661 24.8309 3.04661ZM49.5359 43.067L63.6481 57.1782C65.4352 58.9643 65.4352 61.8725 63.6491 63.6606C62.7545 64.5542 61.5807 64.9999 60.4069 64.9999C59.232 64.9999 58.0592 64.5542 57.1657 63.6606L43.0555 49.5494C42.4625 49.8693 41.7994 50.0551 41.0907 50.0551C41.0074 50.0551 40.9231 50.0531 40.8378 50.048C39.6935 49.983 38.5999 49.4855 37.7591 48.6447L36.0725 46.9581C32.6953 48.6812 28.8753 49.6601 24.8309 49.6601C11.1391 49.6601 0 38.521 0 24.8302C0 11.1384 11.1391 0.000371855 24.8309 0.000371855C38.5217 0.000371855 49.6608 11.1384 49.6608 24.8302C49.6608 28.8817 48.6788 32.7068 46.9496 36.0891L48.6321 37.7717C49.4729 38.6124 49.9705 39.706 50.0354 40.8504C50.0801 41.6516 49.8933 42.404 49.5359 43.067ZM24.5993 7.51838C34.1452 7.51838 41.911 15.2853 41.911 24.8301C41.911 25.6709 41.2287 26.3533 40.3879 26.3533C39.5471 26.3533 38.8648 25.6709 38.8648 24.8301C38.8648 16.9648 32.4647 10.5646 24.5993 10.5646C23.7585 10.5646 23.0762 9.88226 23.0762 9.0415C23.0762 8.20074 23.7585 7.51838 24.5993 7.51838Z" fill="black"/>
</svg>

<svg xmlns="http://www.w3.org/2000/svg" width="65" height="65" fill="none" viewBox="0 0 65 65"><path fill="currentColor" fill-rule="evenodd" d="M59.32 61.507a1.539 1.539 0 0 0 2.174-2.175l-13.98-13.98-2.174 2.174zM39.912 46.49c.31.31.7.492 1.095.516.186.008.555-.013.832-.288l4.867-4.866c.274-.277.297-.64.287-.832a1.7 1.7 0 0 0-.516-1.096l-1.13-1.13a25 25 0 0 1-6.567 6.564zM24.83 3.047c-12.012 0-21.785 9.772-21.785 21.783s9.773 21.784 21.785 21.784c12.011 0 21.784-9.772 21.784-21.784S36.842 3.047 24.83 3.047m24.705 40.02 14.112 14.111a4.59 4.59 0 0 1 .001 6.483A4.57 4.57 0 0 1 60.407 65a4.57 4.57 0 0 1-3.241-1.34l-14.11-14.11a4.1 4.1 0 0 1-2.218.498 4.74 4.74 0 0 1-3.079-1.403l-1.687-1.687a24.7 24.7 0 0 1-11.241 2.702C11.139 49.66 0 38.521 0 24.83 0 11.138 11.14 0 24.83 0c13.692 0 24.83 11.138 24.83 24.83a24.7 24.7 0 0 1-2.71 11.26l1.682 1.682a4.74 4.74 0 0 1 1.403 3.078 4.15 4.15 0 0 1-.5 2.217M24.599 7.518c9.546 0 17.312 7.767 17.312 17.312a1.524 1.524 0 0 1-3.046 0c0-7.865-6.4-14.265-14.266-14.265a1.524 1.524 0 0 1 0-3.047" clip-rule="evenodd"/></svg>
